X:82
T:Teetotaler's Reel
T:Temperance
S:Bernie Waugh
R:Reel
M:2/4
L:1/16
K:G
|:GE|\
"G"DG~GF GABc|dBge dBAc|"Em"BE~ED EFGA|BGAF "D"GFED|
"G"DG~GF GABc|dBge dBAc|"Em"BE~ED "C"EFGA|"D"BGAF "G"G2:|
|:GA|\
"Em"Beed e2 ef|gfga gfed|"D"Add^c d2 de|"Bm"feaf gfed|
"C"Beed e2 ef|"Am"gfga gfed|"Em"BEED "C"EFGA|"D"BGAF "G"G2:|

